%
(Header)
(Generated by gcodetools from Inkscape.)
(Using default header. To add your own header create file "header" in the output dir.)

(Header end.)
G21 (All units in mm)

(Start cutting path id: path2831)
(Change tool to Plasma cutter)
 
 
G00 X370.739340 Y6.442176
M03 (turn on plasma)
 
G03 X376.648681 Y4.358001   I14.469284 J31.605725 F3400.000000
G03 X381.056834 Y3.806746   I4.408153 J17.349443
G03 X389.315476 Y5.825685   I-0.000000 J17.900809
G03 X400.329139 Y14.458300   I-17.523668 J33.699077
G03 X409.669102 Y26.821207   I-79.008973 J69.399461
G03 X428.945584 Y58.272343   I-661.955439 J427.347051
G02 X451.988528 Y57.929632   I0.000000 J-774.844581
G02 X463.402114 Y57.101039   I-3.983725 J-133.897912
G03 X462.841789 Y51.824159   I578.750934 J-64.122725
G03 X462.428771 Y46.559310   I114.507100 J-11.631514
G02 X461.819783 Y40.623974   I-9216.249402 J942.623290
G03 X460.871409 Y31.039544   I1215.938453 J-125.155601
G02 X459.971453 Y20.686188   I-307.749304 J21.535005
G02 X459.703392 Y19.033688   I-14.546918 J1.511743
G03 X458.917594 Y11.095672   I218.737967 J-25.661179
G03 X458.730050 Y6.442176   I57.639422 J-4.653495
G03 X460.220310 Y1.584588   I8.661923 J-0.000000
G03 X463.207441 Y0.000012   I2.987131 J2.023276
G03 X465.243718 Y0.180063   I0.000000 J11.604613
G03 X468.852871 Y1.171315   I-3.587741 J20.129070
G02 X482.896358 Y5.095547   I819.072523 J-2904.090462
G02 X496.885301 Y8.784783   I158.015495 J-570.801004
G01 X500.000026 Y15.812602  
G02 X496.551443 Y15.301621   I-117.874460 J783.635145
G02 X495.522612 Y15.226951   I-1.028831 J7.050447
G02 X488.820472 Y14.475549   I-14.764085 J101.422968
G02 X485.594464 Y14.348475   I-3.226008 J40.885330
G02 X480.495363 Y15.163656   I0.000000 J16.355469
G02 X477.783347 Y17.093720   I1.747581 J5.326018
G02 X476.353037 Y20.295664   I6.100617 J4.645580
G02 X475.666317 Y27.525634   I37.716124 J7.229970
G02 X477.638321 Y69.766695   I453.395513 J0.000000
G02 X489.487859 Y174.817004   I2766.792962 J-258.897172
G01 X486.762480 Y177.745262  
G03 X485.598033 Y175.957061   I93.581392 J-62.211894
G03 X484.621121 Y174.231352   I15.901401 J-10.141040
G02 X480.027111 Y169.510384   I-14.906241 J9.909661
G02 X476.444986 Y168.374836   I-3.582124 J5.082192
G02 X473.963569 Y168.585384   I-0.000000 J14.727644
G02 X465.348822 Y170.424615   I18.084862 J105.802294
G03 X452.954424 Y172.901141   I-50.706721 J-221.520863
G03 X447.633863 Y173.352873   I-5.320561 J-31.107272
G03 X436.090178 Y169.591514   I0.000000 J-19.594576
G03 X420.185452 Y153.147894   I39.354589 J-53.978410
G03 X408.881406 Y130.665186   I74.878518 J-51.731181
G03 X405.390544 Y109.516854   I62.314962 J-21.148332
G03 X405.969251 Y100.785433   I66.158300 J0.000000
G03 X408.115922 Y89.604699   I98.486927 J13.112780
G01 X422.521484 Y101.317731  
G02 X419.087718 Y119.677530   I241.826676 J54.728956
G02 X418.433416 Y128.550530   I59.836299 J8.872999
G02 X425.554991 Y148.018909   I30.171319 J-0.000000
G02 X441.015113 Y155.197676   I15.460122 J-13.057998
G02 X444.179238 Y155.035951   I-0.000000 J-31.033501
G02 X448.217882 Y154.612025   I-84.548633 J-824.925293
G01 X456.004671 Y153.147894  
G01 X458.924723 Y152.855070  
G03 X462.846945 Y152.323022   I8.554175 J48.337564
G02 X469.047544 Y151.683767   I-35.720842 J-376.874189
G01 X435.369683 Y86.090789  
G02 X418.618749 Y55.251578   I-764.913072 J395.508926
G02 X409.283938 Y40.409970   I-175.230907 J99.857192
G02 X397.090784 Y28.133582   I-39.159570 J26.700632
G02 X386.702264 Y24.890200   I-10.388519 J15.015474
G02 X382.663634 Y25.331914   I0.000000 J18.683645
G02 X378.136783 Y26.939983   I4.216640 J19.045973
G01 X370.739340 Y6.442176  
 
M05 (turn off plasma)
(End cutting path id: path2831)


(Start cutting path id: path2831)
(Change tool to Plasma cutter)
 
 
G00 X434.980337 Y70.278199
M03 (turn on plasma)
 
G01 X472.551592 Y144.363120   F3400.000000
G01 X464.570130 Y70.278199  
G01 X434.980337 Y70.278199  
 
M05 (turn off plasma)
(End cutting path id: path2831)


(Start cutting path id: path2829)
(Change tool to Plasma cutter)
 
 
G00 X214.060625 Y3.806746
M03 (turn on plasma)
 
G03 X219.445198 Y3.538229   I6.692872 J80.089649 F3400.000000
G03 X222.431422 Y3.513922   I2.986224 J183.419382
G03 X240.848541 Y9.061014   I0.000000 J33.347248
G03 X256.109287 Y25.768680   I-25.707130 J38.804236
G03 X262.229568 Y40.709065   I-79.873843 J41.443829
G03 X269.346833 Y69.106896   I-262.113452 J80.783534
G03 X274.153884 Y95.461011   I-32697.862103 J5977.780868
G03 X282.000359 Y140.849210   I-2565.234720 J466.836708
G02 X288.523866 Y33.202584   I-14021.288925 J-903.726907
G02 X289.397802 Y9.370434   I-594.237074 J-33.723036
G01 X298.936626 Y20.497815  
G02 X309.525549 Y49.250245   I281.284323 J-87.265124
G02 X350.913420 Y141.727689   I2928.031485 J-1254.927314
G01 X348.966734 Y128.843354  
G02 X347.951087 Y122.235817   I-162.991172 J21.671618
G02 X344.489320 Y102.781858   I-2988.756779 J521.804245
G03 X330.868628 Y26.382376   I173237.086730 J-30924.558232
G02 X330.473105 Y24.597376   I-21.511368 J3.830207
G03 X328.431127 Y13.987850   I141.901298 J-32.812507
G03 X327.942399 Y7.613480   I41.325432 J-6.374371
G03 X329.610236 Y1.685038   I11.370448 J-0.000000
G03 X332.614487 Y0.000012   I3.004250 J1.835642
G03 X334.029510 Y0.141061   I-0.000000 J7.168390
G02 X336.313208 Y0.585664   I35.754820 J-177.566887
G02 X341.569886 Y2.043800   I36.304088 J-120.674245
G02 X354.612141 Y5.270873   I259.513523 J-1020.858250
G01 X363.761619 Y7.027828  
G02 X364.669399 Y7.349597   I1.743349 J-3.476961
G03 X368.433706 Y8.199131   I-76.045120 J345.722359
G01 X372.521774 Y15.519778  
G03 X366.831553 Y14.980972   I40.927200 J-462.539794
G03 X365.124308 Y14.641299   I0.913176 J-9.050017
G02 X359.693532 Y14.165883   I-256.959641 J2904.050089
G02 X357.142869 Y14.055647   I-2.550663 J29.453745
G02 X350.455072 Y17.227552   I0.000000 J8.636391
G02 X347.409371 Y25.768680   I10.453193 J8.541128
G02 X347.918720 Y33.686404   I61.794376 J0.000000
G02 X352.665455 Y66.178638   I982.219737 J-126.897959
G02 X361.597533 Y119.629447   I9743.381673 J-1600.728930
G02 X365.318981 Y140.556386   I1366.369431 J-232.187820
G02 X371.054464 Y169.328105   I1861.370136 J-356.096291
G02 X373.251778 Y177.781849   I85.923470 J-17.820962
G02 X376.728130 Y183.487907   I13.242070 J-4.155589
G02 X379.140523 Y184.480254   I2.412393 J-2.436091
G02 X381.880689 Y184.290047   I0.000000 J-19.832891
G02 X385.953969 Y183.308950   I-2.965588 J-21.258608
G03 X387.040652 Y182.902422   I2.439584 J4.865542
G03 X391.210053 Y181.844820   I192.447921 J749.942899
G01 X399.191515 Y198.243065  
G03 X394.443811 Y199.697198   I-9.725337 J-23.275331
G03 X391.404726 Y200.000020   I-3.039085 J-15.098531
G03 X385.113636 Y198.439493   I-0.000000 J-13.461183
G03 X375.052479 Y191.508073   I24.464384 J-46.278500
G03 X364.402359 Y180.030696   I45.355465 J-52.766302
G03 X355.196160 Y164.568099   I73.827149 J-54.427494
G01 X328.915742 Y109.516854  
G01 X306.918065 Y61.493425  
G01 X302.051328 Y50.951696  
G03 X296.059366 Y139.686812   I-4177.622269 J-237.529889
G03 X291.928507 Y180.673516   I-917.014643 J-71.720111
G01 X285.893754 Y173.352873  
G03 X276.193358 Y174.802357   I-20.235847 J-102.240775
G03 X270.125503 Y175.109828   I-6.067856 J-59.720036
G03 X254.962182 Y170.655439   I-0.000000 J-28.036154
G03 X240.146363 Y155.783328   I26.505767 J-41.221366
G03 X227.134868 Y129.182170   I93.831034 J-62.378577
G03 X223.404772 Y106.295768   I68.345932 J-22.886401
G03 X224.340989 Y94.606985   I73.436045 J0.000000
G03 X227.882174 Y79.355797   I113.247613 J18.258344
G01 X242.677069 Y94.875563  
G02 X237.555447 Y114.962294   I206.278323 J63.292199
G02 X236.447642 Y125.915096   I53.590940 J10.952802
G02 X238.554552 Y139.488382   I44.774853 J0.000000
G02 X243.334085 Y147.840420   I21.812681 J-6.938928
G02 X251.114759 Y153.247630   I15.338472 J-13.769624
G02 X262.922710 Y155.490500   I11.807951 J-29.960992
G02 X268.636364 Y155.158883   I0.000000 J-49.387868
G02 X276.938949 Y153.733546   I-9.016944 J-77.417621
G02 X259.434708 Y55.263554   I-3539.824542 J578.456151
G02 X254.357252 Y37.188884   I-109.885027 J21.117911
G02 X246.773753 Y26.068629   I-25.371673 J9.156380
G02 X237.420985 Y22.547597   I-9.352768 J10.661166
G02 X234.122587 Y22.714785   I0.000000 J32.620182
G02 X223.015433 Y24.011725   I37.814952 J372.062003
G01 X214.060625 Y3.806746  
 
M05 (turn off plasma)
(End cutting path id: path2829)


(Start cutting path id: path2827)
(Change tool to Plasma cutter)
 
 
G00 X180.848156 Y176.866783
M03 (turn on plasma)
 
G03 X156.622208 Y170.220300   I-0.000000 J-47.474153 F3400.000000
G03 X130.623372 Y147.291378   I47.523425 J-80.090602
G03 X113.626377 Y112.702343   I80.004047 J-60.784524
G03 X106.289658 Y57.393863   I204.805496 J-55.308479
G03 X108.995755 Y29.900885   I141.012466 J-0.000000
G03 X114.733465 Y14.641315   I49.138317 J9.767870
G03 X125.333429 Y3.876938   I25.979235 J14.981214
G03 X139.383509 Y0.000012   I14.050079 J23.520464
G03 X163.940707 Y7.265130   I0.000000 J45.136083
G03 X191.165650 Y33.674975   I-53.272168 J82.153850
G03 X206.408876 Y67.400173   I-87.604643 J59.903276
G03 X212.968656 Y119.765755   I-205.732772 J52.365582
G03 X210.332226 Y146.903258   I-140.985138 J-0.000000
G03 X204.719519 Y162.152273   I-50.358203 J-9.877908
G03 X194.331577 Y173.015734   I-26.346564 J-14.794966
G03 X180.848156 Y176.866783   I-13.483421 J-21.678776
 
M05 (turn off plasma)
(End cutting path id: path2827)


(Start cutting path id: path2827)
(Change tool to Plasma cutter)
 
 
G00 X169.557312 Y165.446578
M03 (turn on plasma)
 
G02 X180.544126 Y161.862580   I-0.000000 J-18.632144 F3400.000000
G02 X189.778621 Y150.951689   I-17.892780 J-24.506936
G02 X194.711716 Y136.212414   I-49.218988 J-24.668294
G02 X197.005741 Y110.980981   I-137.610233 J-25.231433
G02 X194.101815 Y74.854151   I-226.173225 J-0.000000
G02 X186.688245 Y46.852134   I-145.540616 J23.549682
G02 X168.438190 Y18.937315   I-71.758509 J26.990893
G02 X150.674350 Y11.713041   I-17.763840 J18.227705
G02 X139.334750 Y15.407670   I-0.000000 J19.249133
G02 X129.747364 Y26.756979   I18.453904 J25.313179
G02 X124.653010 Y42.097744   I51.334933 J25.563529
G02 X122.252573 Y68.814068   I147.473144 J26.716324
G02 X126.466298 Y109.715931   I200.620332 J-0.000000
G02 X135.976798 Y137.445092   I115.014000 J-23.951775
G02 X152.735030 Y159.183626   I61.657226 J-30.202819
G02 X169.557312 Y165.446578   I16.822282 J-19.460839
 
M05 (turn off plasma)
(End cutting path id: path2827)


(Start cutting path id: path2825)
(Change tool to Plasma cutter)
 
 
G00 X19.856310 Y3.806746
M03 (turn on plasma)
 
G03 X52.346171 Y4.314802   I-0.000000 J1039.105832 F3400.000000
G03 X64.338326 Y5.746722   I-2.158889 J69.012840
G03 X74.699224 Y9.852468   I-6.716091 J32.073931
G03 X85.459999 Y17.569557   I-46.683632 J76.457061
G01 X85.849339 Y19.912163  
G02 X71.609431 Y17.791683   I-26.558408 J129.477082
G02 X54.312849 Y16.983905   I-17.296582 J184.778027
G02 X51.844841 Y17.081178   I0.000000 J31.357952
G03 X45.358041 Y17.569557   I-70.338604 J-890.934397
G03 X60.768381 Y42.976261   I-96.014241 J75.613965
G03 X68.523737 Y69.399720   I-91.347046 J41.160442
G01 X83.707973 Y161.054189  
G03 X109.392012 Y158.043673   I180.798685 J1431.407021
G03 X113.297768 Y157.833107   I3.905756 J36.118349
G03 X118.648904 Y158.972179   I0.000000 J13.138831
G03 X122.568910 Y162.774553   I-3.237077 J7.259046
G03 X124.714970 Y169.083300   I-24.645554 J11.903116
G03 X128.482004 Y189.458291   I-440.360866 J91.951947
G01 X125.951299 Y193.850680  
G02 X120.094648 Y179.567528   I-403.828096 J157.243031
G02 X117.604835 Y175.183043   I-21.182415 J9.129647
G02 X114.193491 Y172.619439   I-5.844029 J4.225039
G02 X109.988382 Y171.888746   I-4.205109 J11.734765
G02 X107.230198 Y171.968539   I-0.000000 J47.710283
G03 X97.724191 Y172.474397   I-58.809532 J-1015.569076
G03 X66.222915 Y174.600305   I-273.552090 J-3818.987902
G03 X59.374259 Y174.817004   I-6.848656 J-108.115699
G03 X18.214357 Y156.614597   I0.000000 J-55.637290
G03 X0.000001 Y109.516854   I51.784280 J-47.097744
G03 X1.113634 Y96.423383   I77.529634 J0.000000
G03 X4.866743 Y81.698404   I93.861369 J16.082641
G01 X19.466971 Y96.046867  
G02 X15.800012 Y113.290636   I199.710207 J51.480985
G02 X14.989568 Y122.986837   I57.597730 J9.696201
G02 X19.467807 Y145.951102   I61.119117 J0.000000
G02 X29.589795 Y158.711586   I26.804951 J-10.867698
G02 X37.307714 Y162.139392   I12.004362 J-16.625979
G02 X51.976812 Y163.689623   I14.669098 J-68.628219
G02 X57.203186 Y163.479450   I0.000000 J-65.087341
G02 X69.691755 Y162.225492   I-25.596281 J-317.737336
G01 X53.923509 Y66.764289  
G02 X47.953531 Y36.301879   I-476.807134 J77.627752
G02 X43.873681 Y25.292853   I-44.393960 J10.191529
G02 X36.678697 Y18.085931   I-15.228811 J8.008591
G02 X26.669751 Y15.226951   I-11.792258 J22.333724
G01 X19.856310 Y3.806746  
 
M05 (turn off plasma)
(End cutting path id: path2825)


(Start cutting path id: path2842)
(Change tool to Plasma cutter)
 
 
G00 X456.267850 Y292.961962
M03 (turn on plasma)
 
G03 X456.566085 Y282.389607   I187.542860 J-0.000000 F3400.000000
G03 X457.157753 Y277.201092   I45.647624 J2.577393
G03 X458.827978 Y273.104515   I10.354320 J1.832810
G03 X460.590229 Y272.173918   I1.762229 J1.203227
G03 X462.666979 Y272.909606   I0.000037 J3.298934
G03 X468.472191 Y278.559788   I-28.076180 J34.653873
G03 X473.571177 Y285.251963   I-46.389508 J40.634306
G03 X476.354152 Y290.516310   I-25.792508 J17.002880
G03 X478.833640 Y297.445109   I-53.869762 J23.185472
G03 X481.057903 Y306.820659   I-96.602371 J27.869637
G02 X482.985137 Y316.433251   I312.480688 J-57.649963
G02 X484.236114 Y321.494573   I87.826274 J-19.022231
G02 X486.368035 Y325.556173   I10.498269 J-2.920189
G02 X488.431333 Y326.521747   I2.063403 J-1.721927
G02 X489.703860 Y326.231591   I-0.000230 J-2.936523
G02 X490.973907 Y325.298921   I-1.855127 J-3.857252
G02 X491.802839 Y323.951550   I-2.899434 J-2.712467
G02 X492.118075 Y322.173921   I-4.855688 J-1.777852
G02 X491.900170 Y320.025872   I-10.700374 J0.000403
G02 X489.194130 Y307.907615   I-346.735501 J71.065749
G03 X487.123349 Y295.732279   I102.322589 J-23.666786
G03 X486.397290 Y282.500005   I120.201022 J-13.231530
G03 X486.500242 Y278.021425   I97.386798 J-0.001779
G03 X486.778688 Y274.211961   I70.725039 J3.254620
G01 X487.668563 Y270.271744  
G01 X491.736677 Y272.445657  
G02 X494.971562 Y273.686140   I10.053005 J-21.377706
G02 X496.694693 Y273.940222   I1.723232 J-5.716588
G02 X499.153559 Y273.093790   I-0.000036 J-3.994796
G02 X500.000037 Y271.358700   I-1.355176 J-1.735159
G02 X499.010734 Y268.677713   I-4.127637 J0.000104
G02 X494.660650 Y265.108700   I-12.167400 J10.394658
G01 X489.448368 Y262.255440  
G01 X490.084005 Y247.038046  
G02 X488.926797 Y223.113677   I-720.169351 J22.843996
G02 X488.431333 Y221.630437   I-3.064624 J0.199339
G02 X487.254523 Y220.483434   I-2.451786 J1.338303
G02 X485.253149 Y220.000001   I-2.001475 J3.901465
G02 X482.667556 Y220.385998   I0.000174 J8.853922
G02 X477.244055 Y222.445653   I12.734237 J41.702337
G02 X474.329584 Y224.132311   I10.722915 J21.890098
G02 X472.413172 Y225.706525   I7.397291 J10.958899
G02 X470.962303 Y227.607200   I8.727485 J8.166164
G02 X469.234960 Y230.869567   I24.257892 J14.932432
G02 X466.427205 Y238.778677   I42.559819 J19.561787
G02 X465.675351 Y244.728265   I23.163012 J5.949427
G02 X465.795968 Y246.883805   I19.314631 J0.000364
G02 X466.056749 Y248.125005   I6.624313 J-0.743803
G02 X466.512190 Y249.177488   I7.630232 J-2.677045
G02 X467.963660 Y251.793482   I48.828158 J-25.381364
G03 X469.441236 Y254.266484   I-63.843924 J39.823568
G03 X470.760500 Y256.684787   I-59.741741 J34.160082
G02 X472.198338 Y258.721120   I7.239594 J-3.586029
G02 X474.447215 Y260.489135   I7.640411 J-7.404166
G03 X477.023646 Y262.224065   I-18.247983 J29.879408
G03 X477.752559 Y262.934788   I-2.237188 J3.023590
G02 X478.805256 Y263.982217   I15.167310 J-14.190894
G02 X479.659496 Y264.701092   I7.976882 J-8.611947
G03 X480.655244 Y265.405401   I-12.689896 J18.996945
G03 X480.930770 Y265.652177   I-1.259272 J1.683180
G03 X481.100160 Y265.957395   I-0.524518 J0.490710
G03 X481.185035 Y266.603265   I-2.417261 J0.646172
G03 X481.084213 Y268.225171   I-13.106569 J-0.000658
G03 X480.422266 Y272.717396   I-101.559811 J-12.670351
G03 X479.245163 Y276.848645   I-18.643064 J-3.078587
G03 X478.515328 Y277.336962   I-0.729859 J-0.301281
G03 X477.879525 Y277.075532   I0.000041 J-0.903960
G03 X475.082851 Y273.940222   I23.750706 J-24.000420
G02 X472.255342 Y270.835585   I-30.861016 J25.266405
G02 X468.345058 Y267.282613   I-44.373669 J44.907947
G02 X464.018670 Y264.756778   I-10.677455 J13.320775
G02 X460.208831 Y264.021744   I-3.809795 J9.505857
G02 X455.989466 Y265.444756   I-0.000024 J6.966845
G02 X451.818365 Y270.407613   I8.943481 J11.750926
G02 X450.494352 Y273.768191   I17.201063 J8.718051
G02 X449.657189 Y277.880440   I25.008803 J7.232575
G02 X449.421276 Y282.098928   I61.100929 J5.532826
G02 X449.275791 Y295.679354   I633.764297 J13.580426
G02 X449.711574 Y311.006746   I380.584914 J-3.150776
G02 X450.292826 Y316.603268   I51.191931 J-2.488321
G02 X452.145975 Y321.311392   I12.622828 J-2.249661
G02 X453.979541 Y322.309790   I1.833650 J-1.184635
G02 X455.150281 Y321.847626   I-0.000116 J-1.714214
G02 X456.013612 Y320.407616   I-2.083378 J-2.227852
G02 X456.323079 Y318.613143   I-8.006505 J-2.304691
G02 X456.522116 Y312.119572   I-105.848720 J-6.494237
G02 X456.503518 Y309.538156   I-179.558627 J0.002848
G02 X456.394983 Y303.288050   I-1051.987402 J15.142103
G03 X456.292937 Y297.037730   I778.264019 J-15.832390
G03 X456.267850 Y292.961962   I331.080750 J-4.075767
 
M05 (turn off plasma)
(End cutting path id: path2842)


(Start cutting path id: path2842)
(Change tool to Plasma cutter)
 
 
G00 X473.048808 Y239.021743
M03 (turn on plasma)
 
G03 X473.611376 Y236.786805   I4.720389 J-0.000079 F3400.000000
G03 X476.481285 Y232.635871   I19.934682 J10.715035
G03 X480.277813 Y229.081404   I19.529526 J17.054724
G03 X481.820672 Y228.559786   I1.542915 J2.021118
G03 X482.868749 Y229.418602   I-0.000022 J1.068958
G03 X483.727583 Y238.070655   I-43.153736 J8.652243
G03 X483.485942 Y240.637986   I-28.872830 J-1.422506
G03 X482.837707 Y244.456525   I-64.599635 J-9.002142
G02 X482.245266 Y248.266326   I168.159386 J28.100493
G02 X482.074938 Y249.755438   I25.516986 J3.672999
G01 X481.312168 Y257.907612  
G01 X477.752559 Y252.065222  
G03 X473.909791 Y243.947372   I40.222344 J-24.008610
G03 X473.048808 Y239.021743   I13.658458 J-4.925513
 
M05 (turn off plasma)
(End cutting path id: path2842)


(Start cutting path id: path2840)
(Change tool to Plasma cutter)
 
 
G00 X417.074553 Y327.472832
M03 (turn on plasma)
 
G02 X418.791040 Y327.220379   I-0.000367 J-5.964109 F3400.000000
G02 X421.142667 Y326.250008   I-3.691316 J-12.280332
G02 X423.423706 Y324.958972   I-5.846781 J-12.990880
G02 X426.227788 Y322.717399   I-15.247197 J-21.948054
G02 X428.454833 Y320.102637   I-7.420300 J-8.575805
G02 X430.677300 Y315.516311   I-21.241242 J-13.124852
G02 X431.957372 Y310.670363   I-23.546514 J-8.811925
G02 X432.457078 Y304.375006   I-39.411460 J-6.295869
G02 X431.510091 Y295.043872   I-46.449598 J0.000400
G02 X428.388992 Y284.538049   I-62.132144 J12.741867
G02 X423.579931 Y274.892704   I-53.841741 J20.823343
G02 X417.328819 Y266.739136   I-44.556832 J27.687415
G02 X411.592633 Y261.527901   I-34.913696 J32.668077
G02 X403.217541 Y255.869570   I-49.628259 J64.429223
G02 X394.360134 Y251.477246   I-32.515069 J54.441815
G02 X390.377591 Y250.706526   I-3.982554 J9.904197
G02 X386.362084 Y251.356020   I0.000013 J12.737785
G02 X380.970090 Y253.831526   I8.543069 J25.717993
G02 X376.381289 Y257.411362   I12.253472 J20.438058
G02 X375.122171 Y259.673916   I3.333667 J3.336824
G02 X374.892362 Y261.190534   I7.483017 J1.909601
G02 X373.723765 Y287.119571   I2208.277961 J112.515870
G03 X372.275676 Y313.165399   I-786.427656 J-30.660443
G03 X371.054058 Y324.076094   I-139.045975 J-10.044566
G02 X368.261610 Y347.221077   I419.978661 J62.411467
G02 X367.621608 Y361.032618   I148.700197 J13.811100
G02 X368.226674 Y365.820700   I19.246133 J0.000157
G02 X369.401386 Y367.961967   I4.774029 J-1.226201
G02 X371.441310 Y369.693268   I8.524671 J-7.976854
G02 X372.452492 Y370.000011   I1.011460 J-1.514232
G02 X373.689126 Y369.239577   I-0.000127 J-1.385945
G02 X374.995039 Y364.972835   I-11.683790 J-5.909254
G02 X375.609183 Y359.929349   I-85.441669 J-12.963353
G02 X376.520578 Y348.396748   I-446.192034 J-41.063834
G03 X377.480124 Y336.868564   I337.643058 J22.299616
G03 X378.554648 Y328.152180   I194.029397 J19.494830
G02 X380.079186 Y316.724234   I-510.364018 J-73.900459
G02 X380.842957 Y309.402181   I-208.708550 J-25.471457
G01 X381.478594 Y301.929354  
G01 X391.394598 Y312.391311  
G02 X401.946531 Y322.006485   I65.516668 J-61.302072
G02 X408.048424 Y325.298921   I12.965519 J-16.728524
G02 X414.580232 Y327.176638   I24.795722 J-73.954541
G02 X417.074553 Y327.472832   I2.494780 J-10.358393
 
M05 (turn off plasma)
(End cutting path id: path2840)


(Start cutting path id: path2840)
(Change tool to Plasma cutter)
 
 
G00 X425.083648 Y303.695659
M03 (turn on plasma)
 
G03 X421.976803 Y315.670358   I-24.631217 J-0.000201 F3400.000000
G03 X416.693155 Y318.777181   I-5.283718 J-2.939551
G03 X414.545784 Y318.637218   I0.000744 J-16.554315
G03 X410.463865 Y317.961964   I7.940533 J-60.675847
G03 X408.065571 Y316.900571   I1.221863 J-6.001145
G03 X401.564896 Y311.440224   I37.932147 J-51.758916
G03 X395.613054 Y305.349403   I66.864423 J-71.292154
G03 X390.250458 Y298.804354   I71.884242 J-64.366778
G03 X387.598875 Y294.205270   I19.838738 J-14.501867
G03 X385.165309 Y287.255440   I43.271592 J-19.053048
G03 X383.816888 Y280.001795   I61.248969 J-15.138069
G03 X383.385531 Y273.125005   I54.594829 J-6.876464
G03 X384.094168 Y265.573661   I40.586178 J-0.000215
G03 X385.546707 Y261.711960   I11.800022 J2.234428
G03 X388.120976 Y258.916407   I8.357097 J5.112557
G03 X390.377591 Y258.179351   I2.256608 J3.085948
G03 X391.748243 Y258.352336   I0.000017 J5.516555
G03 X396.734013 Y259.809787   I-19.376376 J75.540932
G03 X401.949076 Y262.343617   I-7.517180 J22.105341
G03 X408.429822 Y267.418484   I-25.661736 J39.446225
G03 X414.194175 Y273.508116   I-39.810623 J43.457174
G03 X419.235729 Y280.597831   I-49.054538 J40.220482
G03 X423.463661 Y290.697166   I-31.640910 J19.180628
G03 X425.083648 Y303.695659   I-51.342710 J12.998977
 
M05 (turn off plasma)
(End cutting path id: path2840)


(Start cutting path id: path2838)
(Change tool to Plasma cutter)
 
 
G00 X265.023017 Y295.543484
M03 (turn on plasma)
 
G02 X264.753812 Y293.974464   I-4.709076 J0.000355 F3400.000000
G02 X262.861835 Y289.429354   I-42.462171 J15.009239
G02 X260.596865 Y285.076860   I-41.458690 J18.808887
G02 X256.759670 Y279.103266   I-82.065029 J48.496019
G02 X252.611838 Y273.423467   I-78.156083 J52.721240
G02 X247.860682 Y267.826092   I-80.650955 J63.642899
G02 X242.668270 Y262.980365   I-32.559355 J29.683984
G02 X236.546255 Y258.858699   I-29.550857 J37.285221
G02 X229.839049 Y256.039403   I-15.348646 J27.126985
G02 X223.833413 Y255.190222   I-6.005621 J20.812041
G02 X211.370419 Y259.729025   I-0.000006 J19.380309
G02 X198.916244 Y276.114136   I30.007066 J35.733810
G02 X198.182370 Y278.950991   I7.235591 J3.385146
G02 X197.644959 Y294.592397   I227.345180 J15.641111
G02 X198.592032 Y322.864624   I422.458634 J0.000305
G02 X200.187528 Y332.500009   I50.244308 J-3.370022
G02 X205.372468 Y343.663955   I32.286839 J-8.209164
G02 X215.824324 Y354.375009   I40.061119 J-28.636683
G02 X228.969979 Y361.853220   I34.143153 J-44.725692
G02 X239.470208 Y363.885879   I10.500647 J-26.106672
G02 X244.948859 Y362.875739   I-0.000437 J-15.364604
G02 X250.148993 Y359.809793   I-6.433350 J-16.854504
G02 X253.971221 Y355.321335   I-9.520594 J-11.979106
G02 X255.107001 Y350.978269   I-7.736492 J-4.343260
G02 X254.569936 Y349.748854   I-1.675912 J0.000101
G02 X253.200074 Y349.211964   I-1.369714 J1.478763
G02 X251.862281 Y349.424001   I-0.000433 J4.323528
G02 X250.276123 Y350.163052   I2.232069 J6.862120
G02 X248.924694 Y351.273902   I3.552253 J5.699055
G02 X247.987812 Y352.608705   I4.261304 J3.987153
G03 X246.230687 Y354.863256   I-5.118475 J-2.177177
G03 X244.046831 Y355.597837   I-2.184063 J-2.879549
G03 X237.657379 Y354.669343   I0.000520 J-22.452423
G03 X228.028651 Y350.842400   I16.456273 J-55.431167
G03 X219.289787 Y345.403697   I28.257393 J-55.143871
G03 X213.790270 Y340.244574   I19.855697 J-26.676502
G03 X210.491079 Y334.910337   I15.416319 J-13.222277
G03 X207.433847 Y325.163051   I49.647832 J-20.925109
G03 X205.992683 Y314.897226   I72.998565 J-15.481949
G03 X205.272666 Y294.320658   I293.642383 J-20.576042
G03 X206.001146 Y284.676692   I64.196739 J-0.000242
G03 X207.688105 Y278.423918   I28.459982 J4.324370
G03 X210.740629 Y272.771147   I25.184164 J9.948998
G03 X214.680167 Y268.505439   I18.080071 J12.745603
G03 X219.574048 Y265.579186   I11.834462 J14.236610
G03 X224.087670 Y264.701092   I4.513579 J11.161305
G03 X227.274708 Y265.201679   I0.000055 J10.395241
G03 X233.368043 Y267.690221   I-13.265539 J41.185627
G03 X239.042701 Y271.061431   I-20.471518 J40.920694
G03 X241.758520 Y273.532614   I-8.091354 J11.620292
G01 X248.242067 Y280.461962  
G03 X251.118650 Y283.729060   I-30.252516 J29.536373
G03 X254.598489 Y288.478267   I-60.605758 J48.056523
G03 X258.029395 Y293.506367   I-8749.228293 J5973.697717
G03 X260.065009 Y296.494571   I-3084.263857 J2103.236483
G02 X262.445494 Y299.054258   I11.530201 J-8.336224
G02 X263.624605 Y299.483702   I1.179201 J-1.404248
G02 X264.444154 Y298.904902   I-0.000043 J-0.869678
G02 X265.023017 Y295.543484   I-9.472151 J-3.361731
 
M05 (turn off plasma)
(End cutting path id: path2838)


(Start cutting path id: path2836)
(Change tool to Plasma cutter)
 
 
G00 X98.596032 Y296.494571
M03 (turn on plasma)
 
G03 X98.741501 Y289.572318   I164.735923 J-0.000779 F3400.000000
G03 X99.104547 Y284.402180   I92.228944 J3.878477
G02 X99.560255 Y279.236505   I-253.572140 J-24.972709
G02 X99.613059 Y277.880440   I-17.397108 J-1.356486
G02 X99.156138 Y271.013545   I-51.832131 J0.000245
G02 X97.833262 Y264.565221   I-47.001603 J6.282536
G02 X95.559308 Y259.122105   I-20.846771 J5.512544
G02 X94.146539 Y258.315223   I-1.412762 J0.833354
G02 X91.227849 Y258.786541   I0.570119 J12.803335
G02 X89.824174 Y259.538047   I1.011841 J3.576591
G02 X89.024234 Y260.803379   I2.106138 J2.217022
G02 X88.044374 Y264.972832   I23.789036 J7.790505
G02 X87.628083 Y269.471975   I46.072242 J6.531747
G02 X87.408732 Y279.510875   I229.595263 J10.038525
G02 X87.575215 Y296.899568   I908.095660 J0.000855
G02 X88.298632 Y325.978268   I2540.397486 J-48.651394
G02 X89.513197 Y355.126187   I1302.815531 J-39.687769
G02 X89.951301 Y357.228270   I7.051381 J-0.372915
G02 X91.982568 Y359.679917   I4.959634 J-2.041906
G02 X95.163566 Y360.625010   I3.181245 J-4.881593
G02 X97.217067 Y360.279928   I-0.000471 J-6.285290
G02 X99.485932 Y359.130445   I-3.064431 J-8.862518
G02 X100.884424 Y357.790826   I-2.939163 J-4.468118
G02 X108.893435 Y346.086964   I-232.619395 J-167.774840
G02 X116.429075 Y334.161327   I-239.084961 J-159.418027
G02 X116.775397 Y332.907617   I-2.096501 J-1.253820
G03 X116.954590 Y332.142036   I1.724461 J-0.000130
G03 X119.063708 Y328.288052   I48.244428 J23.897967
G02 X121.268324 Y324.570796   I-81.933813 J-51.105367
G02 X126.945670 Y314.293485   I-620.969312 J-349.739868
G02 X132.466720 Y304.000121   I-264.915239 J-148.719893
G02 X138.768612 Y291.195658   I-403.705599 J-206.642254
G03 X153.048373 Y265.016561   I239.923145 J113.885395
G03 X156.058074 Y263.342396   I3.009690 J1.868216
G03 X156.543306 Y263.414823   I0.000043 J1.661354
G03 X156.947974 Y263.614136   I-0.410156 J1.343205
G03 X157.233416 Y263.956766   I-0.509104 J0.714346
G03 X157.965001 Y265.788048   I-15.536506 J7.268497
G03 X158.493469 Y267.715894   I-17.278008 J5.772667
G03 X159.109155 Y271.086961   I-52.329733 J11.299174
G03 X159.535895 Y274.628400   I-76.716111 J11.040648
G03 X160.126185 Y281.548918   I-292.491165 J28.433645
G03 X160.682295 Y288.619689   I-314.765636 J28.313316
G03 X161.270339 Y298.532615   I-618.113699 J41.640985
G02 X164.036272 Y337.186947   I1558.564457 J-92.097834
G02 X165.084193 Y343.913051   I48.004694 J-4.034403
G02 X167.200145 Y349.088880   I15.396175 J-3.273744
G02 X169.406558 Y350.706532   I3.179235 J-2.022796
G02 X170.172767 Y350.801741   I1.289094 J-7.243454
G02 X171.313485 Y350.842400   I1.142748 J-16.038400
G02 X173.167828 Y350.344301   I-0.000247 J-3.701684
G02 X174.364566 Y349.076096   I-1.529538 J-2.642094
G02 X175.030146 Y347.215752   I-4.815387 J-2.772050
G02 X175.381593 Y342.961966   I-25.578076 J-4.254665
G02 X175.281901 Y339.977546   I-44.787451 J0.002209
G02 X174.745951 Y333.451096   I-214.910761 J14.363187
G02 X174.100514 Y326.930206   I-2204.067379 J214.865737
G02 X172.711897 Y313.206529   I-9762.202432 J980.847230
G03 X171.508367 Y299.477981   I1387.889436 J-128.588045
G03 X170.296458 Y283.994571   I1764.148639 J-145.871608
G02 X168.386742 Y263.431449   I-412.310379 J27.921396
G02 X167.118247 Y257.092395   I-40.215967 J4.751093
G02 X164.356680 Y252.426558   I-9.796971 J2.648366
G02 X160.761827 Y250.978266   I-3.594858 J3.737315
G02 X153.234509 Y252.675166   I0.000009 J17.543785
G02 X145.887801 Y258.043483   I10.467069 J22.035766
G02 X140.096717 Y265.659224   I34.288000 J32.082600
G02 X132.285062 Y280.326092   I120.906965 J73.809414
G03 X128.792389 Y287.633403   I-443.384441 J-207.435961
G03 X126.182897 Y292.826093   I-226.481306 J-110.562052
G03 X123.471693 Y298.102201   I-332.628615 J-167.591361
G03 X122.623301 Y299.619572   I-28.333629 J-14.846027
G02 X121.771401 Y301.268364   I35.786246 J19.534567
G02 X121.097762 Y302.744572   I28.006273 J13.671922
G02 X120.527668 Y304.395702   I20.696769 J8.070058
G02 X119.826478 Y306.956528   I49.133978 J14.829994
G03 X118.403054 Y310.956338   I-15.584988 J-3.293090
G03 X110.800359 Y324.483703   I-189.183454 J-97.425389
G02 X102.709855 Y337.955266   I2120.975285 J1282.941659
G02 X102.537013 Y338.342398   I1.549850 J0.924109
G03 X102.366895 Y338.546514   I-0.473506 J-0.221689
G03 X102.155628 Y338.614138   I-0.211449 J-0.296768
G03 X101.442078 Y338.010233   I0.000072 J-0.723589
G03 X99.740189 Y324.211964   I157.847501 J-26.473123
G03 X98.873293 Y309.934473   I367.738040 J-29.493268
G03 X98.596032 Y296.494571   I325.564822 J-13.439108
 
M05 (turn off plasma)
(End cutting path id: path2836)


(Start cutting path id: path2834)
(Change tool to Plasma cutter)
 
 
G00 X67.378058 Y295.543484
M03 (turn on plasma)
 
G02 X67.108853 Y293.974464   I-4.709076 J0.000355 F3400.000000
G02 X65.216876 Y289.429354   I-42.462171 J15.009239
G02 X62.951906 Y285.076860   I-41.458690 J18.808887
G02 X59.114711 Y279.103266   I-82.065029 J48.496019
G02 X54.966878 Y273.423467   I-78.156083 J52.721240
G02 X50.215723 Y267.826092   I-80.650955 J63.642899
G02 X45.023311 Y262.980365   I-32.559355 J29.683984
G02 X38.901295 Y258.858699   I-29.550857 J37.285221
G02 X32.194089 Y256.039403   I-15.348647 J27.126986
G02 X26.188454 Y255.190222   I-6.005620 J20.812040
G02 X13.725460 Y259.729025   I-0.000006 J19.380308
G02 X1.271285 Y276.114136   I30.007066 J35.733810
G02 X0.537410 Y278.950991   I7.235573 J3.385145
G02 X0.000001 Y294.592397   I227.344799 J15.641073
G02 X0.947074 Y322.864624   I422.457709 J0.000343
G02 X2.542569 Y332.500009   I50.244345 J-3.370027
G02 X7.727508 Y343.663955   I32.286827 J-8.209155
G02 X18.179364 Y354.375009   I40.061112 J-28.636677
G02 X31.325020 Y361.853220   I34.143165 J-44.725716
G02 X41.825249 Y363.885879   I10.500647 J-26.106669
G02 X47.303900 Y362.875739   I-0.000437 J-15.364604
G02 X52.504034 Y359.809793   I-6.433350 J-16.854504
G02 X56.326262 Y355.321335   I-9.520594 J-11.979106
G02 X57.462042 Y350.978269   I-7.736492 J-4.343260
G02 X56.924977 Y349.748854   I-1.675912 J0.000101
G02 X55.555115 Y349.211964   I-1.369714 J1.478763
G02 X54.217321 Y349.424001   I-0.000433 J4.323528
G02 X52.631164 Y350.163052   I2.232069 J6.862120
G02 X51.279735 Y351.273902   I3.552253 J5.699055
G02 X50.342853 Y352.608705   I4.261304 J3.987153
G03 X48.585728 Y354.863256   I-5.118475 J-2.177177
G03 X46.401872 Y355.597837   I-2.184063 J-2.879549
G03 X40.012420 Y354.669343   I0.000520 J-22.452423
G03 X30.383692 Y350.842400   I16.456273 J-55.431167
G03 X21.644827 Y345.403697   I28.257414 J-55.143907
G03 X16.145309 Y340.244574   I19.855702 J-26.676513
G03 X12.846121 Y334.910338   I15.416341 J-13.222283
G03 X9.788889 Y325.163051   I49.647882 J-20.925127
G03 X8.347725 Y314.897226   I72.998661 J-15.481961
G03 X7.627706 Y294.320658   I293.642607 J-20.576077
G03 X8.356187 Y284.676692   I64.196853 J-0.000226
G03 X10.043146 Y278.423918   I28.459980 J4.324369
G03 X13.095671 Y272.771147   I25.184183 J9.949010
G03 X17.035208 Y268.505439   I18.080070 J12.745602
G03 X21.929088 Y265.579186   I11.834449 J14.236586
G03 X26.442711 Y264.701092   I4.513579 J11.161308
G03 X29.629749 Y265.201679   I0.000055 J10.395242
G03 X35.723084 Y267.690221   I-13.265538 J41.185625
G03 X41.397742 Y271.061431   I-20.471518 J40.920694
G03 X44.113561 Y273.532614   I-8.091354 J11.620292
G01 X50.597107 Y280.461962  
G03 X53.473691 Y283.729060   I-30.252516 J29.536373
G03 X56.953530 Y288.478267   I-60.605758 J48.056523
G03 X60.384436 Y293.506367   I-8749.236544 J5973.685625
G03 X62.420050 Y296.494571   I-3084.262134 J2103.239012
G02 X64.800534 Y299.054258   I11.530201 J-8.336224
G02 X65.979646 Y299.483702   I1.179201 J-1.404248
G02 X66.799195 Y298.904902   I-0.000043 J-0.869678
G02 X67.378058 Y295.543484   I-9.472151 J-3.361731
 
M05 (turn off plasma)
(End cutting path id: path2834)


(Footer)
M5
G00 X0.0000 Y0.0000
M2
(Using default footer. To add your own footer create file "footer" in the output dir.)
(end)
%
